X: 9094
T: Da Shaalds O Foula
R: reel
M: 4/4
K: Amajor
EAAe fecB|AAAB A2GF|EAAe fecA|BABc e2E2:|
|:a2c2 eAcA|aecA eAcA|aecA eAcA|BABc e2E2:|

